!!!id: bhatk3203s
!!!vol: 3
!!!page: 203
!!!sthayee: Ab ghara aavana kaha gaye
!!!raag: bihag
!!!taal: teentaal
!!!tempo: madhyalaya
**kern
!!data: // S  S  >MG  M/  P  -  N  N/  S'  S'  N  [N/  P]  -  -  -/
==1
4c
4c
fq
4e
4f
=
2g
4b
4b
=
4cc
4cc
4b
4bH
=
1gh
!!data: // >PG  M  >DP  M/  [G  -  S]  -/  >SN,  -  P,  N,/  S  S  S  -/
==2
gq
4e
4f
aq
4g
4f
=
2eH
2ch
=
cq
2B
4G
4B
=
4c
4c
2c
!!data: // >N,S  -  >MG  -/  M  >RG  -  M/  P  P  >PG  -/  M  G  S  -/
==3
Bq
2c
fq
2e
=
4f
dq
2e
4f
=
4g
4g
gq
2e
=
4f
4e
2c
==
*-
